resources/svg/laravel.svg

<svg width="15" height="15" viewBox="0 0 15 15" fill="none" xmlns="http://www.w3.org/2000/svg">
<path d="M4.10395 3.39722L6.57057 8.33045L3.92564 9.2121L2.59746 3.89939L4.10395 3.39722Z" fill="black"/>
<path d="M9.27727 11.5078L7.98064 8.91452L11.1378 7.86212L12.3027 9.69254L9.27727 11.5078Z" fill="black"/>
<path d="M12.1839 6.45935L11.5623 6.66653L11.0444 5.85257L11.6207 5.70848L12.1839 6.45935Z" fill="black"/>
<path fill-rule="evenodd" clip-rule="evenodd" d="M0 2.5C0 1.11929 1.11929 0 2.5 0H12.5C13.8807 0 15 1.11929 15 2.5V12.5C15 13.8807 13.8807 15 12.5 15H2.5C1.11929 15 0 13.8807 0 12.5V2.5ZM4.80445 2.56215C4.69317 2.33959 4.43518 2.23272 4.19912 2.31141L1.84198 3.09712C1.59412 3.17974 1.45165 3.43927 1.51502 3.69273L3.08645 9.97845C3.12023 10.1136 3.20883 10.2285 3.33091 10.2955C3.453 10.3625 3.59751 10.3756 3.72963 10.3315L7.02232 9.23396L8.62431 12.4379C8.68659 12.5625 8.79801 12.6554 8.93173 12.6944C9.06544 12.7333 9.20934 12.7147 9.32877 12.6431L13.2573 10.2859C13.373 10.2165 13.4557 10.1033 13.4867 9.97206C13.5177 9.84078 13.4943 9.70254 13.4219 9.58874L12.1157 7.53616L13.1582 7.18866C13.3107 7.13784 13.4294 7.01682 13.4773 6.86341C13.5253 6.71 13.4965 6.5429 13.4001 6.41432L12.2215 4.84289C12.1008 4.68196 11.8954 4.60903 11.7003 4.65782L10.1288 5.05068C9.9729 5.08966 9.84522 5.20122 9.78567 5.3505C9.72613 5.49979 9.74197 5.6686 9.82826 5.80419L10.5845 6.99249L7.52888 8.01101L4.80445 2.56215Z" fill="black"/>
</svg>

<svg viewBox="0 0 15 15" fill="none" xmlns="http://www.w3.org/2000/svg" fill="currentColor"><path d="M4.104 3.397L6.57 8.33l-2.645.882L2.597 3.9l1.507-.502zm5.173 8.111L7.981 8.915l3.157-1.053 1.165 1.83-3.026 1.816zm2.907-5.048l-.622.207-.518-.814.577-.145.563.751z" fill="currentColor"/><path fill-rule="evenodd" clip-rule="evenodd" d="M0 2.5A2.5 2.5 0 012.5 0h10A2.5 2.5 0 0115 2.5v10a2.5 2.5 0 01-2.5 2.5h-10A2.5 2.5 0 010 12.5v-10zm4.804.062a.5.5 0 00-.605-.25l-2.357.785a.5.5 0 00-.327.596l1.571 6.285a.5.5 0 00.644.354l3.292-1.098 1.602 3.204a.5.5 0 00.705.205l3.928-2.357a.5.5 0 00.165-.697l-1.306-2.053 1.042-.347a.5.5 0 00.242-.775l-1.178-1.571a.5.5 0 00-.522-.185l-1.571.393a.5.5 0 00-.3.753l.755 1.188L7.53 8.011 4.804 2.562z" fill="currentColor"/></svg>
